X:2572
T:Cantar de Ronda (CT 432)
R:Ronda
C:Tradicional
S:Música Tradicional Asturiana, (C) Tello & Tito. Asturies, 2001.
S:http://pagina.de/MusTradAst <telloytito@asturies.org>
N:Canción de Ronda, transcrita en L.leitariegos.
O:L.leitariegos
A:Asturies
Z:Cancioneru de Torner 432
M:3/8
L:1/8
Q:3/8=80
W:Dicen que no nos queremos
W:por que no nos ven hablare;
W:a tu corazón y al mío
W:se lo pueden preguntare.
K:C
|Gcc|cBc|(d3/2(3_e/4d/4c/4) B-|B3|
d>dd|Bc(c/>A/)|(B3/2(3c/4B/4A/4) G|AAF|G3|AAF|G3-|G2 z|
Gcc|ddc|(B-B/c/4B/4 A/B/4A/4|G)G2-|G2 ||


